!!!!SEGMENT: pl-kk--kk-i-423--001-001_golabek-jakub--missa-1a-kyrie.krn
!!!cenid: 17xx:2551
!!!COM: Gołąbek, Jakub
!!!COM-rismID: pe30008748
!!!CDT: 1739-1789/03/30
!!!CNT: Polish
!!!OPR: Missa 1a
!!!OTL: Kyrie
!!!OMV: 001
!!!PDT:
!!!AGN: Sacred; Mass
!!!YEC: Copyright 2022 Narodowy Instytut Fryderyka Chopina (https://polishscores.org)
!!!YEM: License CC-BY-4.0 (https://creativecommons.org/licenses/by/4.0)
!!!SMS-siglum: PL-Kk
!!!SMS-shelfmark: Kk.I.423
!!!SMS-variant:
!!!SMS-altvar:
!!!SMS-shelfwork: 001-001 M
!!!NIFC-rismSourceID: 1001147334
!!!NIFC-rismChildID: 1001147336
!!!NIFC-islandoraID:
!!!URL-pdf-islandora: https://repozytorium.nifc.pl/islandora/object/pl-kk%3A10566/datastream/PDF/view
!!!URL-scan: https://polish.musicsources.pl/pl/lokalizacje/galeria/rekopisy/6034-masses/3 @EN{Scan on Polish Music Sources Website} @PL{Skany w portalu Dziedzictwo Muzyki Polskiej w otwartym dostępie}
!!!IIIF:
!!!ONB-nifc: UWAGA: C – skan 3-4, A – 7-8, T – 11-12, B – 15-16. Części Mszy: Kyrie, Christe, Et in terra, Quoniam, Sanctus (+Osanna), Benedictus, Agnus Dei.
!!!AIN: 1 alto 1 bass 1 canto 1 tenor
!!!key:
**kern	**text	**dynam	**kern	**text	**dynam	**kern	**text	**dynam	**kern	**text	**dynam
*part4	*part4	*part4	*part3	*part3	*part3	*part2	*part2	*part2	*part1	*part1	*part1
*staff4	*staff4	*	*staff3	*staff3	*	*staff2	*staff2	*	*staff1	*staff1	*
*I"Basso	*	*	*I"Tenore	*	*	*I"Alto	*	*	*I"Canto	*	*
*I'B.	*	*	*I'T.	*	*	*I'A.	*	*	*I'C.	*	*
*Ibass	*	*	*Itenor	*	*	*Ialto	*	*	*Icanto	*	*
*ICvox	*	*	*ICvox	*	*	*ICvox	*	*	*ICvox	*	*
*clefF4	*	*	*clefC4	*	*	*clefC3	*	*	*clefC1	*	*
*k[]	*	*	*k[]	*	*	*k[]	*	*	*k[]	*	*
*C:	*	*	*C:	*	*	*C:	*	*	*C:	*	*
*M3/2	*	*	*M3/2	*	*	*M3/2	*	*	*M3/2	*	*
=1	=1	=1	=1	=1	=1	=1	=1	=1	=1	=1	=1
!LO:TX:a:t=Lente	!	!	!LO:TX:a:t=Lento	!	!	!LO:TX:a:t=Lente	!	!	!LO:TX:a:t=Lente	!	!
!	!	!	!	!	!	!	!	!	!LO:TX:a:t=Missa 1.a	!	!
2C/	Ky-	.	1c	Ky-	.	1g	Ky-	.	1ee	Ky-	.
*2\right	*	*	*	*	*	*	*	*	*	*	*
2E\	.	.	.	.	.	.	.	.	.	.	.
*	*	*	*2\right	*	*	*2\right	*	*	*2\right	*	*
2G\	-ri-	.	2B\	-ri-	.	2f\	-ri-	.	2dd\	-ri-	.
=2	=2	=2	=2	=2	=2	=2	=2	=2	=2	=2	=2
2c\	-e	.	1G	-e	.	1e	-e	.	1cc	-e	.
2E\	.	.	.	.	.	.	.	.	.	.	.
2G\	e-	.	2G/	e-	.	2d\	e-	.	2b\	e-	.
=3	=3	=3	=3	=3	=3	=3	=3	=3	=3	=3	=3
2C/	-lei-	.	2G/	-lei-	.	4e\	-lei-	.	4cc\	-lei-	.
.	.	.	.	.	.	8d\L	.	.	8b\L	.	.
.	.	.	.	.	.	8e\J	.	.	8cc\J	.	.
.	.	.	.	.	.	8qqg/	.	.	8qee/	.	.
2F\	.	.	2A/	.	.	2f\	.	.	2dd\	.	.
.	.	.	.	.	.	8qqe/	.	.	8qcc/	.	.
2G\	.	.	2G/	.	.	2d\	.	.	2b\	.	.
=4	=4	=4	=4	=4	=4	=4	=4	=4	=4	=4	=4
2C/	-son	.	2G/	-son	.	2e\	-son	.	2cc\	-son	.
2r	.	.	2r	.	.	2r	.	.	2r	.	.
2r	.	.	2G/	e-	.	4e\	e-	.	4cc\	e-	.
.	.	.	.	.	.	4f\	.	.	4dd\	.	.
=5	=5	=5	=5	=5	=5	=5	=5	=5	=5	=5	=5
.	.	.	.	.	.	8qqf/	.	.	.	.	.
2r	.	.	2G/	-lei-	.	2e\	-lei-	.	2cc\	-lei-	.
2r	.	.	2G/	-son	.	2d\	-son	.	2b\	-son	.
2G\	e-	.	2G/	e-	.	4f\	e-	.	4dd\	e-	.
.	.	.	.	.	.	4g\	.	.	4ee\	.	.
!LO:LB:g=original	!	!	!	!	!	!	!	!	!LO:LB:g=original	!	!
=6	=6	=6	=6	=6	=6	=6	=6	=6	=6	=6	=6
.	.	.	.	.	.	8qqg/	.	.	8qee/	.	.
2c\	-lei-	.	2G/	-lei-	.	2f\	-lei-	.	2dd\	-lei-	.
2C/	-son	.	2G/	-son	.	2e\	-son	.	2cc\	-son	.
2C/	e-	.	2c\	e-	.	2g\	e-	.	2ee\	e-	.
!	!	!	!LO:LB:g=original	!	!	!LO:LB:g=original	!	!	!	!	!
=7	=7	=7	=7	=7	=7	=7	=7	=7	=7	=7	=7
2C/	-lei-	.	2c\	-lei-	.	2g\	-lei-	.	2ee\	-lei-	.
2F\	.	.	1A	.	.	2f\	.	.	2dd\	.	.
2F#X\	.	.	.	.	.	2e\	.	.	2cc\	.	.
=8	=8	=8	=8	=8	=8	=8	=8	=8	=8	=8	=8
1G	-son	.	1G	-son	.	1d	-son	.	1b	-son	.
2r	.	.	2r	.	.	2r	.	.	2r	.	.
=9	=9	=9	=9	=9	=9	=9	=9	=9	=9	=9	=9
!LO:TX:a:t=1	!	!	!	!	!	!	!	!	!LO:TX:a:t=1	!	!
1.r	.	.	1.r	.	.	1g	Ky-	p	1.r	.	.
.	.	.	.	.	.	2f\	-ri-	.	.	.	.
=10	=10	=10	=10	=10	=10	=10	=10	=10	=10	=10	=10
2r	.	.	2r	.	.	2.B/	-e	.	2r	.	.
2r	.	.	2r	.	.	.	.	.	2r	.	.
.	.	.	.	.	.	4d\	e-	.	.	.	.
4r	.	.	4r	.	.	4f\	.	.	4r	.	.
!	!	!	!	!	!	!	!	!	!	!	!LO:DY:b:t=p
4G\	e-	p	4B\	e-	p	4d\	.	.	4dd\	e-	p
=11	=11	=11	=11	=11	=11	=11	=11	=11	=11	=11	=11
2C/	-lei-	.	2c\	-lei-	.	2e\	-lei-	.	2ee\	-lei-	.
2G\	-son	.	2B\	-son	.	2g\	-son	.	2dd\	-son	.
2r	.	.	2r	.	.	2r	.	.	2r	.	.
=12	=12	=12	=12	=12	=12	=12	=12	=12	=12	=12	=12
2GG/	Ky-	f	4B\	Ky-	f	4d\	Ky-	.	4dd\	Ky-	f
.	.	.	4d\	-ri-	.	4f\	-ri-	.	4b\	-ri-	.
2G\	-ri-	.	4c\	.	.	4e\	.	.	2g\	.	.
.	.	.	4e\	.	.	4g\	-e	.	.	.	.
2G\	-e	.	2d\	-e	.	2f\	.	.	2b\	-e	.
!LO:LB:g=original	!	!	!	!	!	!	!	!	!	!	!
=13	=13	=13	=13	=13	=13	=13	=13	=13	=13	=13	=13
2c\	lei-	.	4c\	Ky-	.	4e\	Ky-	.	2g\	Ky-	.
.	.	.	4e\	.	.	4g\	.	.	.	.	.
2G\	-son	.	4d\	-ri-	.	4f\	-ri-	.	2g\	-ri-	.
.	.	.	4f\	.	.	4a\	.	.	.	.	.
2C/	e	.	2e\	-e	.	2g\	-e	.	2g\	-e	.
!	!	!	!LO:LB:g=original	!	!	!LO:LB:g=original	!	!	!LO:LB:g=original	!	!
=14	=14	=14	=14	=14	=14	=14	=14	=14	=14	=14	=14
2F\	e-	.	4f\	e-	.	4a\	e-	.	4cc\	e-	.
.	.	.	8e\L	.	.	8g\L	.	.	4a\	.	.
.	.	.	8d\J	.	.	8f\J	.	.	.	.	.
2G\	-le-	.	2c\	-lei-	.	2e\	-lei-	.	1g	-lei-	.
2GG/	-i-	.	2B\	.	.	2d\	.	.	.	.	.
=15	=15	=15	=15	=15	=15	=15	=15	=15	=15	=15	=15
1C	-son	.	1c	-son	.	1e	-son	.	1g	-son	.
2r	.	.	2r	.	.	2r	.	.	2r	.	.
=16	=16	=16	=16	=16	=16	=16	=16	=16	=16	=16	=16
!LO:TX:a:t=1	!	!	!LO:TX:a:t=1	!	!	!LO:TX:a:t=1	!	!	!	!	!
1.r	.	.	1.r	.	.	1.r	.	.	1gg	Ky-	.
.	.	.	.	.	.	.	.	.	2gg\	-ri-	.
=17	=17	=17	=17	=17	=17	=17	=17	=17	=17	=17	=17
2r	.	.	2r	.	.	2r	.	.	2.b\	-e	.
2r	.	.	2r	.	.	2r	.	.	.	.	.
.	.	.	.	.	.	.	.	.	4dd\	.	.
4r	.	.	4r	.	.	4r	.	.	4ff\	.	.
4G\	e-	p	4B\	e-	p	4g\	e-	.	4dd\	e-	.
=18	=18	=18	=18	=18	=18	=18	=18	=18	=18	=18	=18
2E\	-lei-	.	2c\	-lei-	.	2g\	-lei-	.	2cc\	-lei-	.
2G\	-son	.	2B\	-son	.	2g\	-son	.	2dd\	-son	.
2r	.	.	2r	.	.	2r	.	.	2r	.	.
=19	=19	=19	=19	=19	=19	=19	=19	=19	=19	=19	=19
!	!	!	!	!	!	!	!	!LO:DY:a:t=fo	!	!	!
2GG/	Ky-	.	4B\	Ky-	.	4d\	Ky-	f	4dd\	Ky-	f
.	.	.	4d\	.	.	4f\	-ri-	.	4b\	-ri-	.
2G\	-ri-	.	4c\	-ti-	.	4e\	.	.	2g\	-e	.
.	.	.	4e\	.	.	4g\	.	.	.	.	.
2G\	-e	.	2d\	-e	.	2f\	-e	.	2b\	e	.
!LO:LB:g=original	!	!	!LO:LB:g=original	!	!	!	!	!	!	!	!
=20	=20	=20	=20	=20	=20	=20	=20	=20	=20	=20	=20
2C/	Ky-	.	4c\	Ky-	.	4e\	Ky	.	2g\	Ky-	.
.	.	.	4e\	.	.	4g\	ri-	.	.	.	.
2G\	-ri-	.	4d\	-ri-	.	4f\	.	.	2g\	-ri-	.
.	.	.	4f\	.	.	4a\	.	.	.	.	.
2c\	-e	.	2e\	-e	.	2g\	-e	.	2g\	-e	.
!	!	!	!	!	!	!	!	!	!LO:LB:g=original	!	!
=21	=21	=21	=21	=21	=21	=21	=21	=21	=21	=21	=21
2F\	e-	.	4f\	e-	.	4a\	e-	.	4cc\	e-	.
.	.	.	8e\L	.	.	8g\L	.	.	4a\	.	.
.	.	.	8d\J	.	.	8f\J	.	.	.	.	.
!	!	!	!	!	!	!LO:LB:g=original	!	!	!	!	!
2G\	-lei-	.	2c\	-lei-	.	2e\	-lei-	.	1g	-lei-	.
2GG/	.	.	2B\	.	.	2d\	.	.	.	.	.
=22	=22	=22	=22	=22	=22	=22	=22	=22	=22	=22	=22
2C/	-son	.	1c	-son	.	1e	-son	.	1g	-son	.
2r	.	.	.	.	.	.	.	.	.	.	.
2C/	e-	.	2c\	e-	.	2e\	e-	.	2g\	e-	.
=23	=23	=23	=23	=23	=23	=23	=23	=23	=23	=23	=23
1.C	-lei-	.	1.c	-lei-	.	1.f	-lei-	.	1.a	-lei-	.
=24	=24	=24	=24	=24	=24	=24	=24	=24	=24	=24	=24
1.C	-son	.	1c	-son	.	1e	-son	.	1.g	-son	.
.	.	.	2r	.	.	2r	.	.	.	.	.
==	==	==	==	==	==	==	==	==	==	==	==
*-	*-	*-	*-	*-	*-	*-	*-	*-	*-	*-	*-
!!!system-decoration: [(s1,s2,s3,s4)]
!!!ENC: Berenika Jozajtis
!!!END: 2024-01-28
!!!ENC: Leszek Kubiak
!!!END: 2024-07-31
